!!!OTL: FEINDE RINGSUM
!!!ARE: Europa, Mitteleuropa, Deutschland
!!!SCT: F0402
!!!YEM: Copyright 1995, estate of Helmut Schaffrath.
**kern
*ICvox
*Ivox
*M4/4
*k[b-]
*F:
=1
{2F
4.A
8F
=2
2c
2r}
=3
{2c
4.d
8e
=4
2f
2r}
=5
{4d
8d
8d
8d
8B-
8f
8d
=6
4d
4c
2r}
=7
{4d
8d
8d
8d
8B-
8f
8d
=8
4d
4c
2r}
=9
{2d
8d
8c
8B-
8A
=10
2G
2r}
=11
{2c
4.d
8e
=12
4f
2.r}
==
!!!AGN: Vaterlands -, Heimat - Lied, nationalistisch, Krieg
!!!ONB: ESAC (Essen Associative Code) Database: FINK
!!!AMT: simple quadruple
!!!AIN: vox
!!!EED: Helmut Schaffrath
!!!EEV: 1.0
*-
